public/luts/yashica_mat_124g_bw.cube
TITLE "Yashica Mat 124G BW (placeholder)"
LUT_3D_SIZE 2
0.05 0.05 0.05
0.35 0.35 0.35
0.15 0.15 0.15
0.45 0.45 0.45
0.25 0.25 0.25
0.55 0.55 0.55
0.65 0.65 0.65
0.95 0.95 0.95
