luts/yashica_electro_35.cube
TITLE "Yashica Electro 35 warm (placeholder)"
LUT_3D_SIZE 2
0.05 0.05 0.12
0.95 0.42 0.28
0.08 0.07 0.14
0.92 0.48 0.32
0.06 0.06 0.15
0.93 0.45 0.3
0.1 0.09 0.16
1 0.52 0.36
